img/arrow-right-white.svg

<svg fill="none" height="28" viewBox="0 0 28 28" width="28" xmlns="http://www.w3.org/2000/svg"><path d="m21.6179 14.0524c0-.2615-.1076-.523-.2999-.7076l-5.0372-5.02949c-.2154-.21533-.4461-.31531-.6845-.31531-.5537 0-.9459.39221-.9459.91516 0 .27686.1153.50757.2922.68445l1.7227 1.73799 2.0226 1.8534-1.7381-.0999h-9.06699c-.58447 0-.98437.3922-.98437.9613s.3999.9613.98437.9613h9.06699l1.7458-.1-2.0303 1.8534-1.7227 1.738c-.1769.1692-.2922.3999-.2922.6845 0 .5152.3922.9074.9459.9074.2384 0 .4691-.0922.6768-.2922l5.0449-5.0449c.1923-.1846.2999-.4461.2999-.7075z" fill="#e0e0e0"/></svg>

<svg width="28" height="28" viewBox="0 0 28 28" fill="none" xmlns="http://www.w3.org/2000/svg">
<path d="M21.6179 14.0524C21.6179 13.7909 21.5103 13.5294 21.318 13.3448L16.2808 8.31531C16.0654 8.09998 15.8347 8 15.5963 8C15.0426 8 14.6504 8.39221 14.6504 8.91516C14.6504 9.19202 14.7657 9.42273 14.9426 9.59961L16.6653 11.3376L18.6879 13.191L16.9498 13.0911H7.88281C7.29834 13.0911 6.89844 13.4833 6.89844 14.0524C6.89844 14.6215 7.29834 15.0137 7.88281 15.0137H16.9498L18.6956 14.9137L16.6653 16.7671L14.9426 18.5051C14.7657 18.6743 14.6504 18.905 14.6504 19.1896C14.6504 19.7048 15.0426 20.097 15.5963 20.097C15.8347 20.097 16.0654 20.0048 16.2731 19.8048L21.318 14.7599C21.5103 14.5753 21.6179 14.3138 21.6179 14.0524Z" fill="#E0E0E0"/>
</svg>
